svgs/sharp-light/hand-back-point-ribbon.svg

<svg xmlns="http://www.w3.org/2000/svg" viewBox="0 0 448 512"><!--! Font Awesome Pro 6.6.0 by @fontawesome - https://fontawesome.com License - https://fontawesome.com/license (Commercial License) Copyright 2024 Fonticons, Inc. --><path d="M112 0L96 0l0 16 0 48L51.2 64 17.9 64 38.7 90l24 30-24 30L17.9 176l33.3 0L96 176l0 72 0 8.6c-3.2 2-6.4 4.2-9.5 6.5L38.4 299.2 32 304l0 8 0 51.5c0 53 29.1 101.7 75.7 126.8l8.3 4.5c21 11.3 44.4 17.2 68.3 17.2L320 512c61.9 0 112-50.1 112-112l0-96 0-48 0-16-16 0-48 0 0-16 0-16-16 0-56 0 0-16 0-16-16 0-72 0 0-160 0-16L192 0 112 0zm16 176l32 0 16 0 0-32-16 0-75.5 0 11.2-14 8-10-8-10L84.5 96 160 96l16 0 0-32-16 0-32 0 0-32 48 0 0 48 0 80 0 32 0 16 16 0 72 0 0 16 0 16 16 0 56 0 0 16 0 16 16 0 48 0 0 32 0 96c0 44.2-35.8 80-80 80l-135.7 0c-18.5 0-36.8-4.6-53.1-13.4l-7.6 14.1 7.6-14.1-8.3-4.5C86.6 442.6 64 404.7 64 363.5L64 320l32-24 0 48 0 16 32 0 0-16 0-68.7 0-9.5 0-1.7 0-16 0-72z"/></svg>

<svg xmlns="http://www.w3.org/2000/svg" viewBox="0 0 448 512"><!--! Font Awesome Pro 6.4.0 by @fontawesome - https://fontawesome.com License - https://fontawesome.com/license (Commercial License) Copyright 2023 Fonticons, Inc. --><path d="M112 0H96V16 64H51.2 17.9L38.7 90l24 30-24 30L17.9 176H51.2 96v72 8.6c-3.2 2-6.4 4.2-9.5 6.5L38.4 299.2 32 304v8 51.5c0 53 29.1 101.7 75.7 126.8l8.3 4.5c21 11.3 44.4 17.2 68.3 17.2H320c61.9 0 112-50.1 112-112V304 256 240H416 368V224 208H352 296V192 176H280 208V16 0H192 112zm16 176h32 16V144H160 84.5l11.2-14 8-10-8-10L84.5 96H160h16V64H160 128V32h48V80v80 32 16h16 72v16 16h16 56v16 16h16 48v32 96c0 44.2-35.8 80-80 80H184.3c-18.5 0-36.8-4.6-53.1-13.4l-7.6 14.1 7.6-14.1-8.3-4.5C86.6 442.6 64 404.7 64 363.5V320l32-24v48 16h32V344 275.3v-9.5V264 248 176z"/></svg>
